resources/haticons/SVG/loop1.svg

<!-- Generated by IcoMoon.io -->
<svg version="1.1" xmlns="http://www.w3.org/2000/svg" width="24" height="24" viewBox="0 0 24 24">
<title>loop1</title>
<path fill="#f29400" d="M12 0c-6.629 0-12 5.371-12 12s5.371 12 12 12 12-5.371 12-12c0.011-6.629-5.371-12-12-12zM12.7 22.611c-5.863 0-10.611-4.748-10.611-10.611s4.748-10.611 10.611-10.611 10.611 4.748 10.611 10.611-4.748 10.611-10.611 10.611zM7.045 3.413c-4.747 2.735-6.366 8.795-3.632 13.542 2.735 4.737 8.806 6.366 13.542 3.632 4.747-2.735 6.366-8.806 3.632-13.542-2.735-4.748-8.795-6.367-13.542-3.632zM16.868 19.034c-4.080 2.352-9.287 0.952-11.639-3.118-2.352-4.080-0.952-9.287 3.118-11.639 4.080-2.352 9.287-0.952 11.639 3.118 2.351 4.069 0.962 9.287-3.118 11.639zM5.229 8.084c-2.166 3.741-0.875 8.532 2.866 10.687 3.741 2.166 8.532 0.875 10.698-2.866s0.875-8.532-2.866-10.687c-3.752-2.155-8.543-0.875-10.698 2.866zM18.071 14.702c-1.827 3.161-5.863 4.244-9.025 2.417-3.161-1.827-4.244-5.863-2.418-9.025s5.863-4.244 9.025-2.418c3.162 1.817 4.245 5.865 2.418 9.026zM6.093 12c0 3.271 2.647 5.918 5.918 5.918s5.918-2.647 5.918-5.918-2.647-5.918-5.918-5.918-5.918 2.647-5.918 5.918zM16.704 11.3c0 2.593-2.1 4.693-4.693 4.693s-4.693-2.1-4.693-4.693 2.1-4.693 4.693-4.693c2.582 0 4.693 2.1 4.693 4.693z"></path>
</svg>

<svg xmlns="http://www.w3.org/2000/svg" width="24" height="24"><path fill="#f29400" d="M12 0C5.371 0 0 5.371 0 12s5.371 12 12 12 12-5.371 12-12c.011-6.629-5.371-12-12-12zm.7 22.611C6.837 22.611 2.089 17.863 2.089 12S6.837 1.389 12.7 1.389 23.311 6.137 23.311 12 18.563 22.611 12.7 22.611zM7.045 3.413C2.298 6.148.679 12.208 3.413 16.955c2.735 4.737 8.806 6.366 13.542 3.632 4.747-2.735 6.366-8.806 3.632-13.542C17.852 2.297 11.792.678 7.045 3.413zm9.823 15.621a8.524 8.524 0 0 1-11.639-3.118A8.524 8.524 0 0 1 8.347 4.277a8.524 8.524 0 0 1 11.639 3.118c2.351 4.069.962 9.287-3.118 11.639zM5.229 8.084c-2.166 3.741-.875 8.532 2.866 10.687 3.741 2.166 8.532.875 10.698-2.866s.875-8.532-2.866-10.687c-3.752-2.155-8.543-.875-10.698 2.866zm12.842 6.618a6.603 6.603 0 0 1-9.025 2.417c-3.161-1.827-4.244-5.863-2.418-9.025s5.863-4.244 9.025-2.418c3.162 1.817 4.245 5.865 2.418 9.026zM6.093 12c0 3.271 2.647 5.918 5.918 5.918s5.918-2.647 5.918-5.918-2.647-5.918-5.918-5.918S6.093 8.729 6.093 12zm10.611-.7c0 2.593-2.1 4.693-4.693 4.693s-4.693-2.1-4.693-4.693 2.1-4.693 4.693-4.693c2.582 0 4.693 2.1 4.693 4.693z"/></svg>
